app/src/main/assets/symbols/amenity/toilets.svg

<?xml version="1.0" encoding="UTF-8" standalone="no"?>
<svg
   xmlns:dc="http://purl.org/dc/elements/1.1/"
   xmlns:cc="http://creativecommons.org/ns#"
   xmlns:rdf="http://www.w3.org/1999/02/22-rdf-syntax-ns#"
   xmlns:svg="http://www.w3.org/2000/svg"
   xmlns="http://www.w3.org/2000/svg"
   version="1.1"
   width="16"
   height="16"
   viewBox="0 0 16 16"
   id="svg2">
  <metadata id="metadata8">
    <rdf:RDF>
      <cc:Work rdf:about="">
        <dc:format>image/svg+xml</dc:format>
        <dc:type rdf:resource="http://purl.org/dc/dcmitype/StillImage"/>
        <dc:title/>
      </cc:Work>
    </rdf:RDF>
  </metadata>
  <defs id="defs6"/>
  <rect width="16" height="16" x="0" y="0" id="canvas" style="fill:none;stroke:none;visibility:hidden"/>
  <path d="m 6.25,0 0,14 1.5,0 0,-14 -1.5,0 z M 2.5,1 C 1.671573,1 1,1.6715729 1,2.5 1,3.3284271 1.671573,4 2.5,4 3.328427,4 4,3.3284271 4,2.5 4,1.6715729 3.328427,1 2.5,1 z m 9,0 C 10.671573,1 10,1.6715729 10,2.5 10,3.3284271 10.671573,4 11.5,4 12.328427,4 13,3.3284271 13,2.5 13,1.6715729 12.328427,1 11.5,1 z m -10,4 c -0.599722,0 -1,0.568545 -1,1 0,0.5273339 1.25,1.496636 1.25,2 C 1.75,8.555974 0,9 0,11 l 1.75,0 0,3 1.5,0 0,-3 L 5,11 C 5,9 3.25,8.529509 3.25,8 3.25,7.470492 4.5,6.5513036 4.5,6 4.5,5.5925147 4.075273,5 3.5,5 l -2,0 z M 10,5 C 9.472666,5 9,5.4804699 9,6 c 0,1 1.75,4.016073 1.75,5 l 0,3 1.5,0 0,-3 C 12.25,10.035543 14,7 14,6 14,5.446616 13.551304,5 13,5 l -3,0 z" id="toilets" style="fill:#734a08;fill-opacity:1;stroke:none" transform="translate(1,1)"/>
</svg>

<?xml version="1.0" encoding="UTF-8"?>
<svg version="1.1" viewBox="0 0 16 16" xmlns="http://www.w3.org/2000/svg" xmlns:cc="http://creativecommons.org/ns#" xmlns:dc="http://purl.org/dc/elements/1.1/" xmlns:rdf="http://www.w3.org/1999/02/22-rdf-syntax-ns#">
<metadata>
<rdf:RDF>
<cc:Work rdf:about="">
<dc:format>image/svg+xml</dc:format>
<dc:type rdf:resource="http://purl.org/dc/dcmitype/StillImage"/>
<dc:title/>
</cc:Work>
</rdf:RDF>
</metadata>
<rect width="16" height="16" fill="none" visibility="hidden"/>
<path transform="translate(1,1)" d="m6.25 0v14h1.5v-14h-1.5zm-3.75 1c-0.82843 0-1.5 0.67157-1.5 1.5s0.67157 1.5 1.5 1.5 1.5-0.67157 1.5-1.5-0.67157-1.5-1.5-1.5zm9 0c-0.82843 0-1.5 0.67157-1.5 1.5s0.67157 1.5 1.5 1.5 1.5-0.67157 1.5-1.5-0.67157-1.5-1.5-1.5zm-10 4c-0.59972 0-1 0.56854-1 1 0 0.52733 1.25 1.4966 1.25 2 0 0.55597-1.75 1-1.75 3h1.75v3h1.5v-3h1.75c0-2-1.75-2.4705-1.75-3 0-0.52951 1.25-1.4487 1.25-2 0-0.40749-0.42473-1-1-1h-2zm8.5 0c-0.52733 0-1 0.48047-1 1 0 1 1.75 4.0161 1.75 5v3h1.5v-3c0-0.96446 1.75-4 1.75-5 0-0.55338-0.4487-1-1-1h-3z" fill="#734a08"/>
</svg>
